V6_wwwroot/ptn/core/icons/fa6/svgs/solid/person-half-dress.svg

<svg xmlns="http://www.w3.org/2000/svg" viewBox="0 0 320 512"><!--! Font Awesome Free 6.1.1 by @fontawesome - https://fontawesome.com License - https://fontawesome.com/license/free (Icons: CC BY 4.0, Fonts: SIL OFL 1.1, Code: MIT License) Copyright 2022 Fonticons, Inc. --><path d="M112 48C112 21.49 133.5 0 160 0C186.5 0 208 21.49 208 48C208 74.51 186.5 96 160 96C133.5 96 112 74.51 112 48zM168 128H174.9C208.6 128 239.8 145.7 257.2 174.6L315.4 271.5C324.5 286.7 319.6 306.3 304.5 315.4C289.3 324.5 269.7 319.6 260.6 304.5L232 256.9V480C232 497.7 217.7 512 200 512C182.3 512 168 497.7 168 480L168 128zM58.18 182.3C78.06 149.2 113.5 128.8 152 128V480.2C151.9 497.8 137.6 512 120 512C102.3 512 88 497.7 88 480V384H70.2C59.28 384 51.57 373.3 55.02 362.9L93.28 248.1L59.43 304.5C50.33 319.6 30.67 324.5 15.52 315.4C.3696 306.3-4.531 286.7 4.573 271.5L58.18 182.3z"/></svg>

<svg xmlns="http://www.w3.org/2000/svg" viewBox="0 0 320 512"><!--! Font Awesome Free 6.4.2 by @fontawesome - https://fontawesome.com License - https://fontawesome.com/license/free (Icons: CC BY 4.0, Fonts: SIL OFL 1.1, Code: MIT License) Copyright 2023 Fonticons, Inc. --><path d="M160 0a48 48 0 1 1 0 96 48 48 0 1 1 0-96zm8 352V128h6.9c33.7 0 64.9 17.7 82.3 46.6l58.3 97c9.1 15.1 4.2 34.8-10.9 43.9s-34.8 4.2-43.9-10.9L232 256.9V480c0 17.7-14.3 32-32 32s-32-14.3-32-32V352h0zM58.2 182.3c19.9-33.1 55.3-53.5 93.8-54.3V384h0v96c0 17.7-14.3 32-32 32s-32-14.3-32-32V384H70.2c-10.9 0-18.6-10.7-15.2-21.1L93.3 248.1 59.4 304.5c-9.1 15.1-28.8 20-43.9 10.9s-20-28.8-10.9-43.9l53.6-89.2z"/></svg>
